Dominus_Funeral/22/apps/xfce4-fsguard-plugin-warning.svg

<svg xmlns="http://www.w3.org/2000/svg" width="24" height="24" viewBox="0 0 6.35 6.35"><defs><linearGradient id="b"><stop offset="0" stop-color="#040000"/><stop offset="1" stop-color="#000005" stop-opacity="0"/></linearGradient><linearGradient id="a"><stop offset="0" stop-color="#1a1a1a"/><stop offset="1" stop-color="#1a1a1a" stop-opacity="0"/></linearGradient></defs><path d="M.59.43a.32.32 0 0 0-.33.32v4.53c0 .18.15.32.33.32h2.26v-.02c0-.1.03-.2.08-.3l.58-1.13.58-1.12c.1-.19.28-.33.5-.34h.07c.05 0 .09.01.13.03V.75a.32.32 0 0 0-.32-.32zm1.94.97a1.3 1.3 0 0 1 0 2.58h-1.3V2.7c0-.71.58-1.3 1.3-1.3zm0 .64a.65.65 0 1 0 0 1.3.65.65 0 0 0 0-1.3zm2.08.97a.3.33 0 0 0-.24.17L3.8 4.3l-.58 1.13a.3.33 0 0 0-.03.16.3.33 0 0 0 .3.33H5.78a.3.33 0 0 0 .26-.5L5.47 4.3l-.58-1.12A.3.33 0 0 0 4.64 3a.3.33 0 0 0-.03 0zm-.14.65h.32v1.3h-.32zm0 1.62h.32v.32h-.32z" color="#fff" fill="#1a1a1a" stroke-width=".32"/></svg>

<?xml version="1.0" encoding="UTF-8" standalone="no"?>
<svg
   xmlns:dc="http://purl.org/dc/elements/1.1/"
   xmlns:cc="http://creativecommons.org/ns#"
   xmlns:rdf="http://www.w3.org/1999/02/22-rdf-syntax-ns#"
   xmlns:svg="http://www.w3.org/2000/svg"
   xmlns="http://www.w3.org/2000/svg"
   xmlns:sodipodi="http://sodipodi.sourceforge.net/DTD/sodipodi-0.dtd"
   xmlns:inkscape="http://www.inkscape.org/namespaces/inkscape"
   width="24"
   height="24"
   viewBox="0 0 6.35 6.35"
   version="1.1"
   id="svg16"
   sodipodi:docname="xfce4-fsguard-plugin-warning.svg"
   inkscape:version="0.92.4 (5da689c313, 2019-01-14)">
  <metadata
     id="metadata20">
    <rdf:RDF>
      <cc:Work
         rdf:about="">
        <dc:format>image/svg+xml</dc:format>
        <dc:type
           rdf:resource="http://purl.org/dc/dcmitype/StillImage" />
        <dc:title></dc:title>
      </cc:Work>
    </rdf:RDF>
  </metadata>
  <sodipodi:namedview
     pagecolor="#ffffff"
     bordercolor="#666666"
     borderopacity="1"
     objecttolerance="10"
     gridtolerance="10"
     guidetolerance="10"
     inkscape:pageopacity="0"
     inkscape:pageshadow="2"
     inkscape:window-width="1138"
     inkscape:window-height="480"
     id="namedview18"
     showgrid="false"
     inkscape:zoom="9.8333333"
     inkscape:cx="1.0677966"
     inkscape:cy="12"
     inkscape:window-x="0"
     inkscape:window-y="25"
     inkscape:window-maximized="0"
     inkscape:current-layer="svg16" />
  <defs
     id="defs12">
    <linearGradient
       id="b">
      <stop
         offset="0"
         stop-color="#040000"
         id="stop2" />
      <stop
         offset="1"
         stop-color="#000005"
         stop-opacity="0"
         id="stop4" />
    </linearGradient>
    <linearGradient
       id="a">
      <stop
         offset="0"
         stop-color="#1a1a1a"
         id="stop7" />
      <stop
         offset="1"
         stop-color="#1a1a1a"
         stop-opacity="0"
         id="stop9" />
    </linearGradient>
  </defs>
  <path
     d="M 0.59,0.43 A 0.32,0.32 0 0 0 0.26,0.75 v 4.53 c 0,0.18 0.15,0.32 0.33,0.32 H 2.85 V 5.58 c 0,-0.1 0.03,-0.2 0.08,-0.3 L 3.51,4.15 4.09,3.03 C 4.19,2.84 4.37,2.7 4.59,2.69 h 0.07 c 0.05,0 0.09,0.01 0.13,0.03 V 0.75 A 0.32,0.32 0 0 0 4.47,0.43 Z M 2.53,1.4 a 1.3,1.3 0 0 1 0,2.58 H 1.23 V 2.7 c 0,-0.71 0.58,-1.3 1.3,-1.3 z m 0,0.64 a 0.65,0.65 0 1 0 0,1.3 0.65,0.65 0 0 0 0,-1.3 z M 4.61,3.01 A 0.3,0.33 0 0 0 4.37,3.18 L 3.8,4.3 3.22,5.43 A 0.3,0.33 0 0 0 3.19,5.59 0.3,0.33 0 0 0 3.49,5.92 H 5.78 A 0.3,0.33 0 0 0 6.04,5.42 L 5.47,4.3 4.89,3.18 A 0.3,0.33 0 0 0 4.64,3 0.3,0.33 0 0 0 4.61,3 Z M 4.47,3.66 h 0.32 v 1.3 H 4.47 Z m 0,1.62 H 4.79 V 5.6 H 4.47 Z"
     id="path14"
     inkscape:connector-curvature="0"
     style="color:#ffffff;fill:#1a1a1a;stroke-width:0.31999999" />
</svg>
